dist/images/svg/social_learning.svg

<svg xmlns="http://www.w3.org/2000/svg" width="51" height="54" viewBox="0 0 51 54">
  <defs>
    <linearGradient id="icon_social_learning-a" x1="0%" x2="98.577%" y1="0%" y2="98.577%">
      <stop offset="0%" stop-color="#FA384D"/>
      <stop offset="100%" stop-color="#FA513C"/>
    </linearGradient>
  </defs>
  <g fill="none" fill-rule="evenodd" transform="translate(-9 -7)">
    <path fill="url(#icon_social_learning-a)" d="M27.6849167,7 C34.7593594,7 40.8184376,12.3188648 41.9000216,19.3956594 C42.9705691,19.0463272 44.0962995,18.8547579 45.2772127,18.8547579 C48.4336724,18.8547579 51.2921446,20.1844741 53.3670201,22.2804674 C55.4308591,24.3989983 56.7111015,27.3063439 56.7111015,30.5404841 C56.7111015,33.6168614 55.5191517,36.422788 53.6208613,38.5187813 L56.335858,41.2796327 C57.549881,42.5191987 58.4548799,43.8827212 59.0729279,45.4152755 C59.6799394,46.9365609 60,48.5705342 60,50.2946578 L60,53.7654424 C60,54.6669449 59.7240857,55.6360601 59.2053668,56.3910684 C58.6425016,57.1911519 57.8037221,57.7771285 56.7442112,57.8898164 C56.6559186,57.8898164 56.6007358,57.9010851 56.5124432,57.9010851 L53.885739,57.9123539 L53.885739,58.8476628 C53.885739,60.0308848 52.9365938,61 51.7887903,61 C40.884657,61 30.0025968,61 19.1315733,61 C17.9948063,61 17.0456611,60.0308848 17.0456611,58.8476628 L17.0456611,56.9432387 L12.9510928,56.9432387 C12.7965808,56.9432387 12.6420688,56.9207012 12.50963,56.8868948 C11.3949362,56.7178631 10.5340835,56.0642738 9.92707206,55.2078464 C9.32006059,54.3401503 9,53.2245409 9,52.1652755 L9,47.6239566 C9,45.437813 9.38628003,43.3643573 10.1698767,41.4486644 C10.9424367,39.5329716 12.1012768,37.7975793 13.6132872,36.2424875 L17.641636,32.1293823 C14.9487124,29.3685309 13.3373729,25.706177 13.3373729,21.6606845 C13.3373729,13.5922371 19.8048042,7 27.6849167,7 Z M49.6587319,57.625 L49.6587319,50.3642961 C49.6587319,49.6131888 50.2326336,48.9932272 50.9279377,48.9932272 C51.6122052,48.9932272 52.1750703,49.6131888 52.1750703,50.3642961 L52.1750703,54.3582793 L55.795066,54.3582793 L55.795066,50.8292673 C55.795066,49.5893441 55.6074443,48.4328773 55.2211643,47.3956339 C54.8128111,46.3464681 54.2057996,45.3688364 53.3890933,44.474661 L50.2215971,41.0767947 C48.7978792,41.8159796 47.1975763,42.2451838 45.5200173,42.2809508 C46.0939191,44.0812239 46.4029431,45.988798 46.4029431,48.0036731 L46.4029431,52.8083754 C46.4029431,53.9290752 46.0828825,55.1093867 45.475871,56.0274067 C45.0012984,56.7546693 44.3501407,57.3150192 43.5775806,57.625 L49.6587319,57.625 Z M41.8779485,24.004591 L41.8558754,24.1285476 L41.8558754,24.207429 L41.8338022,24.2525042 L41.8338022,24.2750417 L41.7013633,24.8948247 L41.7013633,24.9624374 L41.6792902,25.0187813 L41.6572171,25.086394 C41.0281324,27.7007513 39.7368535,30.1010017 37.8606362,32.0166945 L37.8385631,32.0166945 L37.8385631,32.0279633 L37.7613071,32.1293823 L41.7896559,36.2424875 C42.1980091,36.6594324 42.5842891,37.1101836 42.948496,37.5609349 C43.2354469,37.6510851 43.5334343,37.7299666 43.8314218,37.7975793 C44.2618481,37.8989983 44.7364207,37.9440735 45.2772127,37.9440735 C47.2637957,37.9440735 49.0737936,37.1101836 50.3871456,35.7804674 C51.7004977,34.4394825 52.5172041,32.5914023 52.5172041,30.5404841 C52.5172041,28.5008347 51.7004977,26.6414858 50.3871456,25.3117696 C49.0737936,23.9820534 47.2637957,23.1368948 45.2772127,23.1368948 C44.5046527,23.1368948 43.7762389,23.2721202 43.0809349,23.486227 C42.6725817,23.6214524 42.2642285,23.8017529 41.8779485,24.004591 Z M18.0071959,53.4013663 L18.0071959,47.5117438 C18.0071959,46.7843403 18.6093935,46.1859922 19.313851,46.1859922 C20.0296707,46.1859922 20.6091438,46.7843403 20.6091438,47.5117438 L20.6091438,57.625 L33.9370254,57.625 L33.9370254,47.5117438 C33.9370254,46.7843403 34.5164985,46.1859922 35.2323182,46.1859922 C35.9367757,46.1859922 36.5162489,46.7843403 36.5162489,47.5117438 L36.5162489,53.4013663 C40.3188044,53.4013663 42.2200822,53.4013663 42.2200822,53.4013663 C42.2200822,53.4013663 42.2200822,53.0845938 42.2200822,52.8851444 L42.2200822,48.1570212 C42.2200822,46.4441031 41.9360268,44.8719728 41.3338292,43.428898 C40.9929627,42.5607066 40.5271118,41.7277122 39.9590009,40.9299147 L39.913552,40.8595208 C39.5385988,40.3432989 39.129559,39.8974709 38.7091569,39.4516429 L34.0960964,34.6648581 C32.0508972,35.7676958 29.7216426,36.3895085 27.2560413,36.3895085 C24.8245266,36.3895085 22.495272,35.7676958 20.4500728,34.6648581 L15.92791,39.3460521 L15.8370123,39.4516429 C14.6553416,40.6718038 13.7690886,41.9975554 13.1896155,43.428898 C12.6101424,44.8602405 12.326087,46.4441031 12.326087,48.1570212 L12.326087,52.8851444 C12.326087,53.0845938 12.3715358,53.2723109 12.4397091,53.4013663 L18.0071959,53.4013663 Z M27.6849167,11.2708681 C22.1114477,11.2708681 17.5202337,15.9474124 17.5202337,21.6606845 C17.5202337,27.4415693 22.1335209,32.0392321 27.6849167,32.0392321 C33.2252759,32.0392321 37.8606362,27.4753756 37.8606362,21.6606845 C37.8606362,15.9361436 33.3135685,11.2708681 27.6849167,11.2708681 Z"/>
    <rect width="68" height="68"/>
  </g>
</svg>

<svg xmlns="http://www.w3.org/2000/svg" width="51" height="54" viewBox="0 0 51 54"><defs><linearGradient id="a" x1="0%" x2="98.577%" y1="0%" y2="98.577%"><stop offset="0%" stop-color="#FA384D"/><stop offset="100%" stop-color="#FA513C"/></linearGradient></defs><g fill="none" fill-rule="evenodd"><path fill="url(#a)" d="M27.685 7c7.074 0 13.133 5.319 14.215 12.396 1.07-.35 2.196-.541 3.377-.541 3.157 0 6.015 1.33 8.09 3.425a11.785 11.785 0 0 1 3.344 8.26 11.88 11.88 0 0 1-3.09 7.979l2.715 2.76c1.214 1.24 2.119 2.604 2.737 4.136.607 1.522.927 3.156.927 4.88v3.47c0 .902-.276 1.871-.795 2.626-.562.8-1.401 1.386-2.46 1.499-.09 0-.144.011-.233.011l-2.626.011v.936c0 1.183-.95 2.152-2.097 2.152H19.132c-1.137 0-2.086-.97-2.086-2.152v-1.905H12.95a1.81 1.81 0 0 1-.441-.056c-1.115-.17-1.976-.823-2.583-1.68C9.32 54.34 9 53.226 9 52.166v-4.541c0-2.186.386-4.26 1.17-6.175.772-1.916 1.931-3.651 3.443-5.207l4.029-4.113c-2.693-2.76-4.305-6.423-4.305-10.468C13.337 13.592 19.805 7 27.685 7zm21.974 50.625v-7.26c0-.752.574-1.372 1.269-1.372.684 0 1.247.62 1.247 1.371v3.994h3.62V50.83c0-1.24-.188-2.396-.574-3.433a9.33 9.33 0 0 0-1.832-2.921l-3.167-3.398a10.686 10.686 0 0 1-4.702 1.204c.574 1.8.883 3.708.883 5.723v4.804c0 1.121-.32 2.301-.927 3.22-.475.727-1.126 1.287-1.898 1.597h6.08zm-7.781-33.62l-.022.124v.078l-.022.046v.022l-.133.62v.067l-.022.057-.022.067c-.629 2.615-1.92 5.015-3.796 6.93h-.022v.012l-.078.101 4.029 4.113c.408.417.794.868 1.158 1.319.287.09.585.169.883.237.43.101.905.146 1.446.146 1.987 0 3.797-.834 5.11-2.164a7.462 7.462 0 0 0 2.13-5.24c0-2.04-.817-3.899-2.13-5.228-1.313-1.33-3.123-2.175-5.11-2.175-.772 0-1.5.135-2.196.35a8.088 8.088 0 0 0-1.203.518zM18.008 53.4v-5.89c0-.727.601-1.325 1.306-1.325.716 0 1.295.598 1.295 1.326v10.113h13.328V47.512c0-.728.58-1.326 1.295-1.326.705 0 1.284.598 1.284 1.326v5.89h5.704v-5.245c0-1.713-.284-3.285-.886-4.728a11.678 11.678 0 0 0-1.375-2.5l-.045-.07c-.375-.516-.784-.962-1.205-1.407l-4.613-4.787a14.368 14.368 0 0 1-13.646 0l-4.522 4.681-.091.106c-1.182 1.22-2.068 2.546-2.647 3.977-.58 1.431-.864 3.015-.864 4.728v4.728c0 .2.046.387.114.516h5.567zm9.677-42.13c-5.574 0-10.165 4.676-10.165 10.39 0 5.78 4.614 10.378 10.165 10.378 5.54 0 10.176-4.564 10.176-10.378 0-5.725-4.547-10.39-10.176-10.39z" transform="translate(-9 -7)"/><path d="M-9-7h68v68H-9z"/></g></svg>
